X:1
T:A minor Samuel Holyoke, 1791
T:Philip Doddridge, Published 1755 86. 86. (C. M.)
T:Sturbridge Treble-Tenor-Bass transcribed from Harmonia Americana , 1791; Counter written by B. C. Johnston, 2016.
%%score [ 1 2 3 4 ]
L:1/8
Q:1/4=100
M:4/4
K:C
V:1 treble nm="Tr." snm="Tr."
V:2 treble nm="C." snm="C."
V:3 treble-8 nm="T." snm="T."
V:4 bass nm="B." snm="B."
V:1
 B2 | e2 e>d c2 cB | Ac BA ^G2 z G | E2 c2 BA GA | B4 z2 e>d | c>d e2 e2 B2 | c2 d2 e2 B2 | %7
 A2 B2 BA ^G2 | A4 z2 c2 | e2 A2 B2 ^G2 | A2 c2 d2 d2 | e2 B2 e2 ed | e4 z2 ^G2 | A2 A2 ^G2 A2 | %14
 B2 A2 ^G2 =G2 | c2 e2 dc B2 | c8 |] %17
V:2
"^1. In– dul – gent  God, with  pity – ing   eye     The sons of men sur – vey,    And see how youthful sinners sport  In a destructive way. Ten thousand dangers""^2. Reduce, O Lord, their wandering minds,   Amused with airy dreams;  That heavenly wisdom may dispell  Their visionary schemes.   With holy caution" B2 | %1
 A>G E>D E2 E2 | AE DC B,2 z E | E2 E2 BA BA | ^G4 z2 E>F | F>A B2 A2 G2 | E2 D2 E2 D>E | %7
 F2 ^G2 FA G2 | A4 z2 A2 | c2 A2 G2 B2 | %10
"^1. lurk around To bear them to   the      tomb;         Each in an hour may plunge them down, Where hope can never come.""^2. may they walk, And be thy word their guide;   Till   each, the de–sert  safely  passed,   On     Zi – on's   hill     a   –   bide." A2 E2 F2 D2 | %11
 E2 D2 E2 ^GF | E4 z2 E2 | A2 F2 E2 A2 | F2 A2 B2 E2 | A2 c2 Bc B2 | A8 |] %17
V:3
 E2 | A>B c>d e2 e2 | fe dc B2 z B | c2 e2 dc BA | ^G4 z2 G2 | A2 B2 c2 d2 | e2 d2 c2 d>e | %7
 f2 e2 dc B2 | A4 z2 A2 | c2 c2 B2 B2 | A2 G2 A2 B2 | c2 B2 A2 ^G2 | A4 z2 B2 | c2 d2 e2 c2 | %14
 d2 c2 B2 e2 | A2 c2 BA ^G2 | A8 |] %17
V:4
 E,2 | A,,2 A,,>B,, C,2 C,2 | D,2 D,2 E,2 z E, | A,2 C,2 D,2 G,F, | E,6 E,2 | F,2 E,2 A,2 G,2 | %6
 C2 B,2 A,2 G,2 | F,2 ^G,2 A,2 E,2 | A,,4 z2 A,,2 | A,2 A,2 G,2 E,2 | %10
"^______________________________________________________________\nEdited by B. C. Johnston, 2016\n1. \nTreble \nand \nTenor \nparts exchanged.\n   2. Counrter part written." F,2 E,2 D,2 G,2 | %11
 C,2 D,2 C,2 B,,2 | A,,4 z2 E,2 | A,2 F,2 E,2 F,2 | D,2 A,,2 E,2 E,2 | A,2 C,2 D,2 E,2 | A,,8 |] %17

